X: 7173
T: Ciara's Dance
R: jig
M: 6/8
K: Dmajor
|:AFG A2F|GAd AFG|AFG A2D|EFG GFE|
AFG A2F|GAd AGF|DEF G2A|EDD D2A:|
|:AFA d2A|GAd AFG|AFA d2g|gfg fdA|
FAA d2A|GAd AGF|DEF G2A|EDD D2A:|

